exported-svg/git-commit.svg

<svg height="24" viewBox="0 0 24 24" width="24" xmlns="http://www.w3.org/2000/svg"><path d="m12 17c-2.48528137 0-4.5-2.0147186-4.5-4.5s2.01471863-4.5 4.5-4.5c2.4852814 0 4.5 2.0147186 4.5 4.5s-2.0147186 4.5-4.5 4.5zm0-1c1.9329966 0 3.5-1.5670034 3.5-3.5s-1.5670034-3.5-3.5-3.5-3.5 1.5670034-3.5 3.5 1.5670034 3.5 3.5 3.5zm-10.95-3c-.27614237 0-.5-.2238576-.5-.5s.22385763-.5.5-.5h5.95c.27614237 0 .5.2238576.5.5s-.22385763.5-.5.5zm15.96 0c-.2761424 0-.5-.2238576-.5-.5s.2238576-.5.5-.5h5.95c.2761424 0 .5.2238576.5.5s-.2238576.5-.5.5z"/></svg>

<?xml version="1.0" encoding="UTF-8"?>
<svg width="24px" height="24px" viewBox="0 0 24 24" version="1.1" xmlns="http://www.w3.org/2000/svg" xmlns:xlink="http://www.w3.org/1999/xlink">
    <!-- Generator: Sketch 55.2 (78181) - https://sketchapp.com -->
    <title>git-commit</title>
    <desc>Created with Sketch.</desc>
    <g id="git-commit" stroke="none" stroke-width="1" fill="none" fill-rule="evenodd">
        <path d="M12,17 C9.51471863,17 7.5,14.9852814 7.5,12.5 C7.5,10.0147186 9.51471863,8 12,8 C14.4852814,8 16.5,10.0147186 16.5,12.5 C16.5,14.9852814 14.4852814,17 12,17 Z M12,16 C13.9329966,16 15.5,14.4329966 15.5,12.5 C15.5,10.5670034 13.9329966,9 12,9 C10.0670034,9 8.5,10.5670034 8.5,12.5 C8.5,14.4329966 10.0670034,16 12,16 Z M1.05,13 C0.773857625,13 0.55,12.7761424 0.55,12.5 C0.55,12.2238576 0.773857625,12 1.05,12 L7,12 C7.27614237,12 7.5,12.2238576 7.5,12.5 C7.5,12.7761424 7.27614237,13 7,13 L1.05,13 Z M17.01,13 C16.7338576,13 16.51,12.7761424 16.51,12.5 C16.51,12.2238576 16.7338576,12 17.01,12 L22.96,12 C23.2361424,12 23.46,12.2238576 23.46,12.5 C23.46,12.7761424 23.2361424,13 22.96,13 L17.01,13 Z" id="Combined-Shape" fill="#000000" fill-rule="nonzero"></path>
    </g>
</svg>
